X: 21432
T: Kevin Barry
R: march
M: 
K: Dmajor
M:3/4
D2F2|:A4A2|^G4A2|B2A4-|A2F2A2|
f4d2|A4F2|E6-|E2c2d2|
e4d2|c4G2|B2A4-|A2^G2A2|
[1 c4B2|G4A2|F6-|F2D2F2:|
[2 c4B2|G4E2|D6-|D2||

